svg/N_Arrows/23.svg

<svg xmlns="http://www.w3.org/2000/svg" viewBox="0 0 744.09 1052.36" xmlns:xlink="http://www.w3.org/1999/xlink"><defs><path id="0" d="m-472.14 541.65l39.29-8.571 4.286 71.43-43.571-62.857z" stroke="#000" fill-rule="evenodd" fill="none"/><path id="1" d="m-428.57 605.93l-65.71-30.714 22.857-34.29 42.857 65z" stroke="#000" fill-rule="evenodd"/><path id="2" d="m321.43 270.93h68.57v74.28h-68.57z"/></defs><g transform="matrix(.76311 0 0 .75856 164.26 69.45)"><path transform="matrix(1.07268 0 0 1.11762 448.87-102.78)" d="M-28.571419 510.93362A127.14286 127.14286 0 1 1 -282.85714 510.93362 127.14286 127.14286 0 1 1 -28.571419 510.93362z" opacity=".97" fill="none" stroke="#000" stroke-linecap="square" stroke-width="6.919"/><g transform="matrix(0-1 1 0-206.28-60.673)"><use xlink:href="#0"/><path d="m-428.57 605.93l-65.71-30.714 22.857-34.29 42.857 65z" fill-rule="evenodd" stroke="#000"/></g><g transform="matrix(0 1-1 0 769.08 1000.99)"><use xlink:href="#0"/><use xlink:href="#1"/></g><g transform="translate(819.6-31.96)"><use xlink:href="#0"/><use xlink:href="#1"/></g><g transform="matrix(-1 0 0-1-254.78 969.67)"><use xlink:href="#0"/><use xlink:href="#1"/></g><g transform="translate(-672.76-8.08)"><g fill-rule="evenodd" stroke="#000"><path d="m901.27 426.66l53.808-156.27 53.808 156.27 161.42 52.09-161.42 52.09-53.808 156.27-53.808-156.27-161.42-52.09 161.42-52.09z" fill="none" stroke-width="10.588"/><path d="m1005.44 421.64l-45.4 52.32v-188.36l45.4 136.03z" stroke-width="9.748"/><path d="m1009.41 523.75l-55.95-42.496h201.42l-145.47 42.496z" stroke-width="9.752"/><path d="m897.67 431.39l54.08 42.641h-194.68l140.6-42.641z" stroke-width="9.604"/><path d="m905.62 550.39l48.613-52.39v188.61l-48.613-136.22z" stroke-width="10.09"/></g><g font-family="Arial Black" font-size="56"><flowRoot transform="matrix(1.67301 0 0 1.62195 656.47-9.137)"><flowRegion><use xlink:href="#2"/></flowRegion><flowPara>E</flowPara></flowRoot><flowRoot transform="matrix(1.67301 0 0 1.62195 382.42 264.48)"><flowRegion><use xlink:href="#2"/></flowRegion><flowPara>S</flowPara></flowRoot><flowRoot transform="matrix(1.67301 0 0 1.62195 377.03-272.92)"><flowRegion><use xlink:href="#2"/></flowRegion><flowPara>N</flowPara></flowRoot><flowRoot transform="matrix(1.67301 0 0 1.62195 80.66-10.775)"><flowRegion><use xlink:href="#2"/></flowRegion><flowPara>W</flowPara></flowRoot></g><path d="M79.80205 680.62604A24.748737 26.26397 0 1 1 30.30458 680.62604 24.748737 26.26397 0 1 1 79.80205 680.62604" transform="translate(903.08-201.02)" opacity=".97"/></g></g></svg>

<?xml version="1.0" encoding="UTF-8" standalone="no"?>
<!-- Created with Inkscape (http://www.inkscape.org/) -->
<svg
   xmlns:dc="http://purl.org/dc/elements/1.1/"
   xmlns:cc="http://web.resource.org/cc/"
   xmlns:rdf="http://www.w3.org/1999/02/22-rdf-syntax-ns#"
   xmlns:svg="http://www.w3.org/2000/svg"
   xmlns="http://www.w3.org/2000/svg"
   xmlns:sodipodi="http://sodipodi.sourceforge.net/DTD/sodipodi-0.dtd"
   xmlns:inkscape="http://www.inkscape.org/namespaces/inkscape"
   width="744.09448819"
   height="1052.3622047"
   id="svg2"
   sodipodi:version="0.32"
   inkscape:version="0.44.1"
   sodipodi:docbase="F:\QGIS_N_ARROWS\TOT"
   sodipodi:docname="finale.svg"
   inkscape:export-filename="F:\QGIS_N_ARROWS\TOT\finale.png"
   inkscape:export-xdpi="300"
   inkscape:export-ydpi="300">
  <defs
     id="defs4" />
  <sodipodi:namedview
     id="base"
     pagecolor="#ffffff"
     bordercolor="#666666"
     borderopacity="1.0"
     inkscape:pageopacity="0.0"
     inkscape:pageshadow="2"
     inkscape:zoom="0.35"
     inkscape:cx="550.18439"
     inkscape:cy="649.116"
     inkscape:document-units="px"
     inkscape:current-layer="layer1"
     showgrid="true"
     inkscape:window-width="1280"
     inkscape:window-height="744"
     inkscape:window-x="-4"
     inkscape:window-y="-4" />
  <metadata
     id="metadata7">
    <rdf:RDF>
      <cc:Work
         rdf:about="">
        <dc:format>image/svg+xml</dc:format>
        <dc:type
           rdf:resource="http://purl.org/dc/dcmitype/StillImage" />
      </cc:Work>
    </rdf:RDF>
  </metadata>
  <g
     inkscape:label="Livello 1"
     inkscape:groupmode="layer"
     id="layer1">
    <g
       id="g10846"
       transform="matrix(0.763105,0,0,0.758562,164.2594,69.45264)">
      <path
         transform="matrix(1.072679,0,0,1.117623,448.8743,-102.7832)"
         d="M -28.571419 510.93362 A 127.14286 127.14286 0 1 1  -282.85714,510.93362 A 127.14286 127.14286 0 1 1  -28.571419 510.93362 z"
         sodipodi:ry="127.14286"
         sodipodi:rx="127.14286"
         sodipodi:cy="510.93362"
         sodipodi:cx="-155.71428"
         id="path2259"
         style="opacity:0.97000002;fill:none;fill-opacity:1;stroke:black;stroke-width:6.91922426;stroke-linecap:square;stroke-linejoin:miter;stroke-miterlimit:4;stroke-dasharray:none;stroke-opacity:1"
         sodipodi:type="arc" />
      <g
         transform="matrix(0,-1,1,0,-206.2762,-60.67348)"
         id="g3314">
        <path
           style="fill:none;fill-rule:evenodd;stroke:black;stroke-width:1px;stroke-linecap:butt;stroke-linejoin:miter;stroke-opacity:1"
           d="M -472.14286,541.6479 L -432.85714,533.07647 L -428.57143,604.50504 L -472.14286,541.6479 z "
           id="path3308" />
        <path
           style="fill:black;fill-opacity:1;fill-rule:evenodd;stroke:black;stroke-width:1px;stroke-linecap:butt;stroke-linejoin:miter;stroke-opacity:1"
           d="M -428.57142,605.93362 L -494.28571,575.21933 L -471.42857,540.93361 L -428.57142,605.93362 z "
           id="path3312" />
      </g>
      <g
         transform="matrix(0,1,-1,0,769.0841,1000.994)"
         id="g3321">
        <path
           style="fill:none;fill-rule:evenodd;stroke:black;stroke-width:1px;stroke-linecap:butt;stroke-linejoin:miter;stroke-opacity:1"
           d="M -472.14286,541.6479 L -432.85714,533.07647 L -428.57143,604.50504 L -472.14286,541.6479 z "
           id="path3323" />
        <path
           style="fill:black;fill-opacity:1;fill-rule:evenodd;stroke:black;stroke-width:1px;stroke-linecap:butt;stroke-linejoin:miter;stroke-opacity:1"
           d="M -428.57142,605.93362 L -494.28571,575.21933 L -471.42857,540.93361 L -428.57142,605.93362 z "
           id="path3325" />
      </g>
      <g
         transform="translate(819.6023,-31.96043)"
         id="g3327">
        <path
           style="fill:none;fill-rule:evenodd;stroke:black;stroke-width:1px;stroke-linecap:butt;stroke-linejoin:miter;stroke-opacity:1"
           d="M -472.14286,541.6479 L -432.85714,533.07647 L -428.57143,604.50504 L -472.14286,541.6479 z "
           id="path3329" />
        <path
           style="fill:black;fill-opacity:1;fill-rule:evenodd;stroke:black;stroke-width:1px;stroke-linecap:butt;stroke-linejoin:miter;stroke-opacity:1"
           d="M -428.57142,605.93362 L -494.28571,575.21933 L -471.42857,540.93361 L -428.57142,605.93362 z "
           id="path3331" />
      </g>
      <g
         transform="matrix(-1,0,0,-1,-254.7783,969.6688)"
         id="g3333">
        <path
           style="fill:none;fill-rule:evenodd;stroke:black;stroke-width:1px;stroke-linecap:butt;stroke-linejoin:miter;stroke-opacity:1"
           d="M -472.14286,541.6479 L -432.85714,533.07647 L -428.57143,604.50504 L -472.14286,541.6479 z "
           id="path3335" />
        <path
           style="fill:black;fill-opacity:1;fill-rule:evenodd;stroke:black;stroke-width:1px;stroke-linecap:butt;stroke-linejoin:miter;stroke-opacity:1"
           d="M -428.57142,605.93362 L -494.28571,575.21933 L -471.42857,540.93361 L -428.57142,605.93362 z "
           id="path3337" />
      </g>
      <g
         transform="translate(-672.7616,-8.08122)"
         id="g10822">
        <path
           id="path1872"
           d="M 901.2736,426.66192 L 955.08122,270.38865 L 1008.8888,426.66192 L 1170.3117,478.753 L 1008.8888,530.8441 L 955.08122,687.11736 L 901.2736,530.8441 L 739.85078,478.753 L 901.2736,426.66192 z "
           style="fill:none;fill-rule:evenodd;stroke:black;stroke-width:10.58847904px;stroke-linecap:butt;stroke-linejoin:miter;stroke-opacity:1" />
        <path
           id="path1892"
           d="M 1005.4353,421.6368 L 960.03498,473.95788 L 960.03498,285.60202 L 1005.4353,421.6368 z "
           style="fill:black;fill-opacity:1;fill-rule:evenodd;stroke:black;stroke-width:9.74760246px;stroke-linecap:butt;stroke-linejoin:miter;stroke-opacity:1" />
        <path
           id="path1894"
           d="M 1009.4095,523.74935 L 953.45977,481.25384 L 1154.8787,481.25384 L 1009.4095,523.74935 z "
           style="fill:black;fill-opacity:1;fill-rule:evenodd;stroke:black;stroke-width:9.7521553px;stroke-linecap:butt;stroke-linejoin:miter;stroke-opacity:1" />
        <path
           id="path1896"
           d="M 897.66691,431.38679 L 951.74574,474.02804 L 757.06205,474.02804 L 897.66691,431.38679 z "
           style="fill:black;fill-opacity:1;fill-rule:evenodd;stroke:black;stroke-width:9.60414314px;stroke-linecap:butt;stroke-linejoin:miter;stroke-opacity:1" />
        <path
           id="path1898"
           d="M 905.62464,550.39483 L 954.23761,498.00406 L 954.23761,686.61084 L 905.62464,550.39483 z "
           style="fill:black;fill-opacity:1;fill-rule:evenodd;stroke:black;stroke-width:10.09331036px;stroke-linecap:butt;stroke-linejoin:miter;stroke-opacity:1" />
        <flowRoot
           transform="matrix(1.673008,0,0,1.621953,656.4739,-9.137071)"
           style="font-size:56px;font-family:Arial Black"
           id="flowRoot2029"
           xml:space="preserve"><flowRegion
             id="flowRegion2031"><rect
               style="font-size:56px;font-family:Arial Black"
               y="270.93362"
               x="321.42856"
               height="74.285713"
               width="68.571426"
               id="rect2033" /></flowRegion><flowPara
             id="flowPara2035">E</flowPara></flowRoot>        <flowRoot
           transform="matrix(1.673008,0,0,1.621953,382.4232,264.479)"
           style="font-size:56px;font-family:Arial Black"
           id="flowRoot2037"
           xml:space="preserve"><flowRegion
             id="flowRegion2039"><rect
               style="font-size:56px;font-family:Arial Black"
               y="270.93362"
               x="321.42856"
               height="74.285713"
               width="68.571426"
               id="rect2041" /></flowRegion><flowPara
             id="flowPara2043">S</flowPara></flowRoot>        <flowRoot
           transform="matrix(1.673008,0,0,1.621953,377.0253,-272.9227)"
           style="font-size:56px;font-family:Arial Black"
           id="flowRoot2045"
           xml:space="preserve"><flowRegion
             id="flowRegion2047"><rect
               style="font-size:56px;font-family:Arial Black"
               y="270.93362"
               x="321.42856"
               height="74.285713"
               width="68.571426"
               id="rect2049" /></flowRegion><flowPara
             id="flowPara2051">N</flowPara></flowRoot>        <flowRoot
           transform="matrix(1.673008,0,0,1.621953,80.65513,-10.77547)"
           style="font-size:56px;font-family:Arial Black"
           id="flowRoot2053"
           xml:space="preserve"><flowRegion
             id="flowRegion2055"><rect
               style="font-size:56px;font-family:Arial Black"
               y="270.93362"
               x="321.42856"
               height="74.285713"
               width="68.571426"
               id="rect2057" /></flowRegion><flowPara
             id="flowPara2059">W</flowPara></flowRoot>        <path
           sodipodi:type="arc"
           style="opacity:0.97000002;fill:black;fill-opacity:1;stroke:none;stroke-width:20.46800041;stroke-linecap:square;stroke-linejoin:miter;stroke-miterlimit:4;stroke-dasharray:none;stroke-opacity:1"
           id="path10789"
           sodipodi:cx="55.053314"
           sodipodi:cy="680.62604"
           sodipodi:rx="24.748737"
           sodipodi:ry="26.263966"
           d="M 79.802052 680.62604 A 24.748737 26.263966 0 1 1  30.304577,680.62604 A 24.748737 26.263966 0 1 1  79.802052 680.62604 z"
           transform="translate(903.0764,-201.0204)" />
      </g>
    </g>
  </g>
</svg>
